packages/dnb-eufemia/assets/icons/file_xml.svg

<svg width="16" height="16" viewBox="0 0 16 16" fill="none" xmlns="http://www.w3.org/2000/svg">
<path d="M10.7181 4.98526C10.9861 5.30109 11.4594 5.33986 11.7753 5.07186C12.0911 4.80385 12.1299 4.33057 11.8619 4.01474L10.7181 4.98526ZM4 15.5927C4.41421 15.5927 4.75 15.2569 4.75 14.8427C4.75 14.4285 4.41421 14.0927 4 14.0927V15.5927ZM2 1.00001L2 1.75001L2 1.00001ZM7.85706 1L7.85706 1.75L7.85706 1ZM8.61953 1.35298L8.04768 1.83825L8.61953 1.35298ZM1.75 13.8427V2.00001H0.25V13.8427H1.75ZM2 1.75001L7.85706 1.75L7.85705 0.250001L2 0.250008L2 1.75001ZM8.04768 1.83825L10.7181 4.98526L11.8619 4.01474L9.19139 0.867723L8.04768 1.83825ZM2 15.5927H4V14.0927H2V15.5927ZM1.75 2.00001C1.75 1.86194 1.86193 1.75001 2 1.75001L2 0.250008C1.0335 0.250009 0.25 1.03351 0.25 2.00001H1.75ZM0.25 13.8427C0.25 14.8092 1.0335 15.5927 2 15.5927V14.0927C1.86193 14.0927 1.75 13.9807 1.75 13.8427H0.25ZM7.85706 1.75C7.93047 1.75 8.00017 1.78227 8.04768 1.83825L9.19139 0.867723C8.85889 0.475884 8.37096 0.25 7.85705 0.250001L7.85706 1.75Z" fill="black"/>
<path d="M7.73333 12.6667L6.38667 10.2667L7.67333 8H6.57333L5.87333 9.40667L5.2 8H4.06L5.34 10.3333L4 12.6667H5.14667L5.86 11.24L6.54667 12.6667H7.73333Z" fill="black"/>
<path d="M11.6641 8.00667H10.4774L9.98406 10.28L9.49073 8H8.33073V12.6667H9.24406V10.24L9.59073 11.7133H10.3974L10.7107 10.2333V12.6733H11.6641V8.00667Z" fill="black"/>
<path d="M13.6615 11.8667V8H12.6615V12.6667H15.7281V11.8667H13.6615Z" fill="black"/>
</svg>

<svg width="16" height="16" viewBox="0 0 16 16" fill="none" xmlns="http://www.w3.org/2000/svg"><path d="M10.718 4.985a.75.75 0 0 0 1.144-.97l-1.144.97ZM4 15.593a.75.75 0 0 0 0-1.5v1.5ZM2 1v.75V1Zm5.857 0v.75V1Zm.763.353-.572.485.572-.485Zm-6.87 12.49V2H.25v11.843h1.5ZM2 1.75h5.857V.25H2v1.5Zm6.048.088 2.67 3.147 1.144-.97L9.192.868l-1.144.97ZM2 15.593h2v-1.5H2v1.5ZM1.75 2A.25.25 0 0 1 2 1.75V.25A1.75 1.75 0 0 0 .25 2h1.5ZM.25 13.843c0 .966.784 1.75 1.75 1.75v-1.5a.25.25 0 0 1-.25-.25H.25ZM7.857 1.75a.25.25 0 0 1 .19.088l1.144-.97A1.75 1.75 0 0 0 7.857.25v1.5Zm-.124 10.917-1.346-2.4L7.673 8h-1.1l-.7 1.407L5.2 8H4.06l1.28 2.333L4 12.667h1.147l.713-1.427.687 1.427h1.186Zm3.931-4.66h-1.187l-.493 2.273L9.491 8H8.33v4.667h.913V10.24l.347 1.473h.806l.314-1.48v2.44h.953V8.007Zm1.998 3.86V8h-1v4.667h3.066v-.8h-2.066Z" fill="#000"/></svg>
